X: 33
T: The Thunder Spoke Quietly
N: Derived from pawnee33.krn
O: Oklahoma, U.S.A.
N: from Pawnee Music by Frances Densmore, 1926
Z: transcribed to **kern format by David Huron, August 2000
C: Skidi and Chaui Bands, 1919
L: 1/8
M: 3/4
Q: 1/4=88
K: Ab clef=bass
%%linebreak <none>
E, E, E,> E, C,3/ A,,/ [I:setbarnb 2]| 
C, C, C,> C, A,, E,, | 
(A,,> E,,) E,, E,,E,,2 | 
E,,6 | 
E,,4E,,2[M:2/4] | 
E,, B,, C, C,3// C,// | 
(C,> B,,)A,,2[M:3/4] | 
E,, E,, E,, C,,!fermata!C,,2 | 
(A,,> E,,) E,, E,,E,,2 | 
E,,4E,,2 :|]  



